X: 24955
T: Maid In The Meadow, The
R: jig
M: 6/8
K: Gmajor
|:GAB|c3 B/c/dB|AGA BGE|DGB AGA|BGB AGE|
c2 c B/c/dB|AGA BGE|DGB AGA|1 BGG:|2 BGE||
|:G2 D|GBd g2 g|ede gdB|GBd gdB|ABA AGE|
GBd g2 g|ege gdB|GAB AGA|BGF:|

